icons/24x24_folder_outline.svg

<svg xmlns="http://www.w3.org/2000/svg" width="24" height="24" viewBox="0 0 24 24">
  <path fill-rule="evenodd" d="M11.5187996,6 L20,6 C21.1045695,6 22,6.8954305 22,8 L22,18 C22,19.1045695 21.1045695,20 20,20 L4,20 C2.8954305,20 2,19.1045695 2,18 L2,6 C2,4.8954305 2.8954305,4 4,4 L9.06812872,4 C9.71691723,4 10.3253958,4.31470894 10.7003348,4.84418723 L11.5187996,6 Z M4,6 L4,18 L20,18 L20,10 L13.4522642,10 C12.4790814,10 11.5663635,9.52793659 11.003955,8.73371916 L9.06812872,6 L4,6 Z"/>
</svg>

<svg width="24" height="24" fill="none" xmlns="http://www.w3.org/2000/svg"><path fill-rule="evenodd" clip-rule="evenodd" d="M11.519 6H20a2 2 0 0 1 2 2v10a2 2 0 0 1-2 2H4a2 2 0 0 1-2-2V6a2 2 0 0 1 2-2h5.068a2 2 0 0 1 1.632.844L11.52 6ZM4 6v12h16v-8h-6.548a3 3 0 0 1-2.448-1.266L9.068 6H4Z" fill="#000"/></svg>
